file/hbo.svg

<svg clip-rule="evenodd" fill-rule="evenodd" stroke-linejoin="round" stroke-miterlimit="1.41421" viewBox="0 0 560 400" xmlns="http://www.w3.org/2000/svg"><path d="m347.6 150c0 18-14.5 32.5-32.5 32.5-17.9 0-32.5-14.5-32.5-32.5s14.6-32.5 32.5-32.5 32.5 14.5 32.5 32.5zm-272-19.5h-27.8v-59.6h-43.7v158h43.6v-58.5h27.8v58.5h43.6v-158h-43.5zm320.3 19.5c0 44.5-36.3 80.8-80.8 80.8-34.2 0-63.5-21.4-75.3-51.5.1 1 .1 2.1.1 3.2 0 48.3-41.8 46.4-41.8 46.4h-69.6v-158h66.9c12.1 0 46.4 6.6 46.4 40.4 0 1.8-.1 3.5-.2 5.1 12.8-27.8 40.9-47.2 73.5-47.2 44.6 0 80.8 36.2 80.8 80.8zm-195.9 28.7c0-11.1-9.3-11.1-9.3-11.1h-23.2v24.1h23.2s9.3-.9 9.3-13zm0-57.9c0-11.4-9.3-11.3-9.3-11.3h-23.2v23.8h23.2s9.3-1.1 9.3-12.5zm35.3 41.8c-.6-4.1-1-8.3-1-12.6 0-4.2.3-8.3.9-12.3-4.7 6.8-11.1 9.7-16.6 10.7s8.9.5 16.7 14.2zm119.7-12.6c0-22-17.9-39.9-39.9-39.9s-39.9 17.9-39.9 39.9 17.9 39.9 39.9 39.9 39.9-17.9 39.9-39.9z" fill-rule="nonzero" transform="matrix(.918836 0 0 .918836 96.2328 62.1746)"/></svg>

<?xml version="1.0" encoding="UTF-8" standalone="no"?>
<!DOCTYPE svg PUBLIC "-//W3C//DTD SVG 1.1//EN" "http://www.w3.org/Graphics/SVG/1.1/DTD/svg11.dtd">
<svg width="100%" height="100%" viewBox="0 0 560 400" version="1.1" xmlns="http://www.w3.org/2000/svg" xmlns:xlink="http://www.w3.org/1999/xlink" xml:space="preserve" xmlns:serif="http://www.serif.com/" style="fill-rule:evenodd;clip-rule:evenodd;stroke-linejoin:round;stroke-miterlimit:1.41421;">
    <g id="logosvg.com_1_" transform="matrix(0.918836,0,0,0.918836,96.2328,62.1746)">
        <path d="M347.6,150C347.6,168 333.1,182.5 315.1,182.5C297.2,182.5 282.6,168 282.6,150C282.6,132 297.2,117.5 315.1,117.5C333,117.5 347.6,132 347.6,150ZM75.6,130.5L47.8,130.5L47.8,70.9L4.1,70.9L4.1,228.9L47.7,228.9L47.7,170.4L75.5,170.4L75.5,228.9L119.1,228.9L119.1,70.9L75.6,70.9L75.6,130.5ZM395.9,150C395.9,194.5 359.6,230.8 315.1,230.8C280.9,230.8 251.6,209.4 239.8,179.3C239.9,180.3 239.9,181.4 239.9,182.5C239.9,230.8 198.1,228.9 198.1,228.9L128.5,228.9L128.5,70.9L195.4,70.9C207.5,70.9 241.8,77.5 241.8,111.3C241.8,113.1 241.7,114.8 241.6,116.4C254.4,88.6 282.5,69.2 315.1,69.2C359.7,69.2 395.9,105.4 395.9,150ZM200,178.7C200,167.6 190.7,167.6 190.7,167.6L167.5,167.6L167.5,191.7L190.7,191.7C190.7,191.7 200,190.8 200,178.7ZM200,120.8C200,109.4 190.7,109.5 190.7,109.5L167.5,109.5L167.5,133.3L190.7,133.3C190.7,133.3 200,132.2 200,120.8ZM235.3,162.6C234.7,158.5 234.3,154.3 234.3,150C234.3,145.8 234.6,141.7 235.2,137.7C230.5,144.5 224.1,147.4 218.6,148.4C213.1,149.4 227.5,148.9 235.3,162.6ZM355,150C355,128 337.1,110.1 315.1,110.1C293.1,110.1 275.2,128 275.2,150C275.2,172 293.1,189.9 315.1,189.9C337.1,189.9 355,172 355,150Z" style="fill-rule:nonzero;"/>
    </g>
</svg>
